X:1
T:La Purisima, 77.76 D
T:La Purisima, 77.76 D
T:Minnie B. Enlow, 1920
T:Public Domain Courtesy of the Cyber Hymnal™
C:Minnie B. Enlow, 1920
Z:Public Domain
Z:Courtesy of the Cyber Hymnal™
%%score ( 1 2 ) ( 3 4 )
L:1/8
Q:1/4=90
M:6/8
K:Ab
V:1 treble 
V:2 treble 
V:3 bass 
V:4 bass 
V:1
 [Ec][DB][CA] [CE]2 [CA] | [EG]3 [DF]3 | [Fd][Ec][DB] [CA]2 [=DB] | ([DB]3 E3) | %4
 [Ec][DB][CA] [CE]2 [CA] | [EG]3 [DF]3 | [CE][CE][CE] [DF]2 [DG] | [CA]3- [CA]2 [Ec] | %8
 [Fd]2 [Fd] [Fd]2 [Fd] | [Fd]3 [Ec]2 [Ec] | [Ee][Ed][Ec] (cB)[_DA] | [DB]3- [DB]2 E | %12
 [Ec]2 [DB] [CA]2 [CE] | [EG]3 [DF]2 [DF] | [CE]2 [CE] [DF]2 [DG] | [CA]6 |] %16
V:2
 x6 | x6 | x6 | x3 E3 | x6 | x6 | x6 | x6 | x6 | x6 | x3 =D2 x | x5 E | x6 | x6 | x6 | x6 |] %16
V:3
 [A,,A,]3 [A,,A,]3 | [D,A,]3 [D,A,]3 | [B,,B,]3 [F,A,]3 | [E,G,]6 | [A,,A,]3 [A,,A,]3 | %5
 [D,A,]3 [D,A,]3 | [E,A,]3 [E,G,]2 [E,B,] | [A,,E,A,]3- [A,,E,A,]2 [A,,A,] | %8
 [D,A,]2 [D,A,] [D,A,]2 [D,A,] | [A,,A,]3 [A,,A,]2 A, | [A,C][A,B,]A, [B,,A,]2 [B,,F,] | %11
 [E,G,]3- [E,G,]2 [E,G,] | [A,,A,]2 [E,G,] [F,A,]2 A, | [D,A,]3 [D,A,]2 [D,A,] | %14
 [E,A,]2 [E,A,] [E,G,]2 [E,B,] | [A,,A,]6 |] %16
V:4
 x6 | x6 | x6 | x6 | x6 | x6 | x6 | x6 | x6 | x5 A, | x2 A, x3 | x6 | x5 A, | x6 | x6 | x6 |] %16

